X: 33070
T: Priesthaugh, The
R: hornpipe
M: 4/4
K: Dmajor
BG|ADDE FGAB|(3=cBA BG EFGB|ADDE FAGB|Ad (3cde d2 de|
=fedc AddB|(3=cBA BG EFGB|(3AB=c BA (3B^cd AG|(3FGA GF D2:|
BG|Adfa gfdf|(3gfe fd e=cBG|Adfa gfdg|(3fed ge a2 BG|
Adfa gfdf|(3gfe fd e=cBG|(3AB=c BA (3B^cd AG|(3FGA GF D2 BG|
Adfa gfdf|(3gfe fd e=cBG|Adfa gfdg|(3fed ge a2 de|
=fedc AddB|(3=cBA BG EFGB|(3AB=c BA (3B^cd AG|(3FGA GF D2||

